assets/nodejs.svg

<svg xmlns="http://www.w3.org/2000/svg" width="589.827" height="361.238" version="1.2" viewBox="0 0 442.37 270.929"><defs><clipPath id="a"><path d="M239.03 226.605l-42.13 24.317c-1.578.91-2.546 2.59-2.546 4.406v48.668c0 1.817.968 3.496 2.546 4.406l42.133 24.336c1.575.907 3.517.907 5.09 0l42.126-24.336c1.57-.91 2.54-2.59 2.54-4.406v-48.668c0-1.816-.97-3.496-2.55-4.406l-42.12-24.317c-.79-.453-1.67-.68-2.55-.68-.88 0-1.76.227-2.55.68"/></clipPath><linearGradient id="b" x1="-.348" x2="1.251" gradientTransform="rotate(116.114 53.1 202.97) scale(86.48)" gradientUnits="userSpaceOnUse"><stop offset=".3" stop-color="#3E863D"/><stop offset=".5" stop-color="#55934F"/><stop offset=".8" stop-color="#5AAD45"/></linearGradient><clipPath id="c"><path d="M195.398 307.086c.403.523.907.976 1.5 1.316l36.14 20.875 6.02 3.46c.9.52 1.926.74 2.934.665.336-.027.672-.09 1-.183l44.434-81.36c-.34-.37-.738-.68-1.184-.94l-27.586-15.93-14.582-8.39c-.414-.24-.863-.41-1.32-.53zm0 0"/></clipPath><linearGradient id="d" x1="-.456" x2=".582" gradientTransform="rotate(-36.46 550.846 -214.337) scale(132.798)" gradientUnits="userSpaceOnUse"><stop offset=".57" stop-color="#3E863D"/><stop offset=".72" stop-color="#619857"/><stop offset="1" stop-color="#76AC64"/></linearGradient><clipPath id="e"><path d="M241.066 225.953c-.707.07-1.398.29-2.035.652l-42.01 24.247 45.3 82.51c.63-.09 1.25-.3 1.81-.624l42.13-24.336c1.3-.754 2.19-2.03 2.46-3.476l-46.18-78.89c-.34-.067-.68-.102-1.03-.102-.14 0-.28.007-.42.02"/></clipPath><linearGradient id="f" x1=".043" x2=".984" gradientTransform="translate(192.862 279.652) scale(97.417)" gradientUnits="userSpaceOnUse"><stop offset=".16" stop-color="#6BBF47"/><stop offset=".38" stop-color="#79B461"/><stop offset=".47" stop-color="#75AC64"/><stop offset=".7" stop-color="#659E5A"/><stop offset=".9" stop-color="#3E863D"/></linearGradient></defs><path fill="#689f63" d="M218.647 270.93c-1.46 0-2.91-.383-4.19-1.12l-13.337-7.896c-1.992-1.114-1.02-1.508-.363-1.735 2.656-.93 3.195-1.14 6.03-2.75.298-.17.688-.11.993.07l10.246 6.08c.37.2.895.2 1.238 0l39.95-23.06c.37-.21.61-.64.61-1.08v-46.1c0-.46-.24-.87-.618-1.1l-39.934-23.04c-.37-.22-.86-.22-1.23 0l-39.926 23.04c-.387.22-.633.65-.633 1.09v46.1c0 .44.24.86.62 1.07l10.94 6.32c5.94 2.97 9.57-.53 9.57-4.05v-45.5c0-.65.51-1.15 1.16-1.15h5.06c.63 0 1.15.5 1.15 1.15v45.52c0 7.92-4.32 12.47-11.83 12.47-2.31 0-4.13 0-9.21-2.5l-10.48-6.04c-2.59-1.5-4.19-4.3-4.19-7.29v-46.1c0-3 1.6-5.8 4.19-7.28l39.99-23.07c2.53-1.43 5.89-1.43 8.4 0l39.94 23.08c2.58 1.49 4.19 4.28 4.19 7.28v46.1c0 2.99-1.61 5.78-4.19 7.28l-39.94 23.07c-1.28.74-2.73 1.12-4.21 1.12"/><path fill="#689f63" d="M230.987 239.164c-17.48 0-21.145-8.024-21.145-14.754 0-.64.516-1.15 1.157-1.15h5.16c.57 0 1.05.415 1.14.978.78 5.258 3.1 7.91 13.67 7.91 8.42 0 12-1.902 12-6.367 0-2.57-1.02-4.48-14.1-5.76-10.94-1.08-17.7-3.49-17.7-12.24 0-8.06 6.8-12.86 18.19-12.86 12.79 0 19.13 4.44 19.93 13.98.03.33-.09.65-.31.89-.22.23-.53.37-.85.37h-5.19c-.54 0-1.01-.38-1.12-.9-1.25-5.53-4.27-7.3-12.48-7.3-9.19 0-10.26 3.2-10.26 5.6 0 2.91 1.26 3.76 13.66 5.4 12.28 1.63 18.11 3.93 18.11 12.56 0 8.7-7.26 13.69-19.92 13.69m48.66-48.89h1.34c1.1 0 1.31-.77 1.31-1.22 0-1.18-.81-1.18-1.26-1.18h-1.38zm-1.63-3.78h2.97c1.02 0 3.02 0 3.02 2.28 0 1.59-1.02 1.92-1.63 2.12 1.19.08 1.27.86 1.43 1.96.08.69.21 1.88.45 2.28h-1.83c-.05-.4-.33-2.6-.33-2.72-.12-.49-.29-.73-.9-.73h-1.51v3.46h-1.67zm-3.57 4.3c0 3.58 2.89 6.48 6.44 6.48 3.58 0 6.47-2.96 6.47-6.48 0-3.59-2.93-6.44-6.48-6.44-3.5 0-6.44 2.81-6.44 6.43m14.16.03c0 4.24-3.47 7.7-7.7 7.7-4.2 0-7.7-3.42-7.7-7.7 0-4.36 3.58-7.7 7.7-7.7 4.15 0 7.69 3.35 7.69 7.7"/><path fill="#fff" fill-rule="evenodd" d="M94.936 90.55c0-1.84-.97-3.53-2.558-4.445l-42.356-24.37c-.715-.42-1.516-.64-2.328-.67h-.438c-.812.03-1.613.25-2.34.67L2.562 86.105C.984 87.025 0 88.715 0 90.555l.093 65.64c0 .91.47 1.76 1.27 2.21.78.48 1.76.48 2.54 0l25.18-14.42c1.59-.946 2.56-2.618 2.56-4.44V108.88c0-1.83.97-3.52 2.555-4.43l10.72-6.174c.796-.46 1.67-.688 2.56-.688.876 0 1.77.226 2.544.687l10.715 6.172c1.586.91 2.56 2.6 2.56 4.43v30.663c0 1.82.983 3.5 2.565 4.44l25.164 14.41c.79.47 1.773.47 2.56 0 .776-.45 1.268-1.3 1.268-2.21zm199.868 34.176c0 .457-.243.88-.64 1.106l-14.548 8.386c-.395.227-.883.227-1.277 0l-14.55-8.386c-.4-.227-.64-.65-.64-1.106V107.93c0-.458.24-.88.63-1.11l14.54-8.4c.4-.23.89-.23 1.29 0l14.55 8.4c.4.23.64.652.64 1.11zM298.734.324c-.794-.442-1.76-.43-2.544.027-.78.46-1.262 1.3-1.262 2.21v65c0 .64-.34 1.23-.894 1.55-.55.32-1.235.32-1.79 0L281.634 63c-1.58-.914-3.526-.914-5.112 0l-42.37 24.453c-1.583.91-2.56 2.6-2.56 4.42v48.92c0 1.83.977 3.51 2.56 4.43l42.37 24.47c1.582.91 3.53.91 5.117 0l42.37-24.48c1.58-.92 2.56-2.6 2.56-4.43V18.863c0-1.856-1.01-3.563-2.63-4.47zm141.093 107.164c1.574-.914 2.543-2.602 2.543-4.422V91.21c0-1.824-.97-3.507-2.547-4.425l-42.1-24.44c-1.59-.92-3.54-.92-5.13 0l-42.36 24.45c-1.59.92-2.56 2.6-2.56 4.43v48.9c0 1.84.99 3.54 2.58 4.45l42.09 23.99c1.55.89 3.45.9 5.02.03l25.46-14.15c.8-.45 1.31-1.3 1.31-2.22 0-.92-.49-1.78-1.29-2.23l-42.62-24.46c-.8-.45-1.29-1.3-1.29-2.21v-15.34c0-.916.48-1.76 1.28-2.216l13.26-7.65c.79-.46 1.76-.46 2.55 0l13.27 7.65c.79.45 1.28 1.3 1.28 2.21v12.06c0 .91.49 1.76 1.28 2.22.79.45 1.77.45 2.56-.01zm0 0"/><path fill="#689f63" fill-rule="evenodd" d="M394.538 105.2c.3-.177.676-.177.98 0l8.13 4.69c.304.176.49.5.49.85v9.39c0 .35-.186.674-.49.85l-8.13 4.69c-.304.177-.68.177-.98 0l-8.125-4.69c-.31-.176-.5-.5-.5-.85v-9.39c0-.35.18-.674.49-.85zm0 0"/><g clip-path="url(#a)" transform="translate(-78.306 -164.016)"><path fill="url(#b)" d="M331.363 246.793l-118.715-58.19-60.87 124.174L270.49 370.97zm0 0"/></g><g clip-path="url(#c)" transform="translate(-78.306 -164.016)"><path fill="url(#d)" d="M144.07 264.004l83.825 113.453 110.86-81.906-83.83-113.45zm0 0"/></g><g clip-path="url(#e)" transform="translate(-78.306 -164.016)"><path fill="url(#f)" d="M197.02 225.934v107.43h91.683v-107.43zm0 0"/></g></svg>

<?xml version="1.0" encoding="UTF-8"?>
<svg width="443px" height="271px" viewBox="0 0 443 271" version="1.1" xmlns="http://www.w3.org/2000/svg" xmlns:xlink="http://www.w3.org/1999/xlink">
    <!-- Generator: Sketch 46.2 (44496) - http://www.bohemiancoding.com/sketch -->
    <title>nodejs</title>
    <desc>Created with Sketch.</desc>
    <defs>
        <path d="M87.676,38.68 L45.546,62.997 C43.968,63.907 43,65.587 43,67.403 L43,116.071 C43,117.888 43.968,119.567 45.546,120.477 L87.679,144.813 C89.254,145.72 91.196,145.72 92.769,144.813 L134.895,120.477 C136.465,119.567 137.435,117.887 137.435,116.071 L137.435,67.403 C137.435,65.587 136.465,63.907 134.885,62.997 L92.765,38.68 C91.975,38.227 91.095,38 90.215,38 C89.335,38 88.455,38.227 87.665,38.68" id="path-1"></path>
        <linearGradient x1="66.9275519%" y1="15.9039155%" x2="33.0350785%" y2="83.9895613%" id="linearGradient-3">
            <stop stop-color="#3E863D" offset="30%"></stop>
            <stop stop-color="#55934F" offset="50%"></stop>
            <stop stop-color="#5AAD45" offset="80%"></stop>
        </linearGradient>
        <path d="M52,125.017 C52.403,125.54 52.907,125.993 53.5,126.333 L89.64,147.208 L95.66,150.668 C96.56,151.188 97.586,151.408 98.594,151.333 C98.93,151.306 99.266,151.243 99.594,151.15 L144.028,69.79 C143.688,69.42 143.29,69.11 142.844,68.85 L115.258,52.92 L100.676,44.53 C100.262,44.29 99.813,44.12 99.356,44 L52,125.017 Z" id="path-4"></path>
        <linearGradient x1="21.7863929%" y1="71.2953793%" x2="78.7318794%" y2="29.363948%" id="linearGradient-6">
            <stop stop-color="#3E863D" offset="57%"></stop>
            <stop stop-color="#619857" offset="72%"></stop>
            <stop stop-color="#76AC64" offset="100%"></stop>
        </linearGradient>
        <path d="M45.045,1.019 C44.338,1.089 43.647,1.309 43.01,1.671 L1,25.918 L46.3,108.428 C46.93,108.338 47.55,108.128 48.11,107.804 L90.24,83.468 C91.54,82.714 92.43,81.438 92.7,79.992 L46.52,1.102 C46.18,1.035 45.84,1 45.49,1 C45.35,1 45.21,1.007 45.07,1.02" id="path-7"></path>
        <linearGradient x1="0.0337368978%" y1="50.0027925%" x2="100.0189%" y2="50.0027925%" id="linearGradient-9">
            <stop stop-color="#6BBF47" offset="16%"></stop>
            <stop stop-color="#79B461" offset="38%"></stop>
            <stop stop-color="#75AC64" offset="47%"></stop>
            <stop stop-color="#659E5A" offset="70%"></stop>
            <stop stop-color="#3E863D" offset="90%"></stop>
        </linearGradient>
    </defs>
    <g id="Page-1" stroke="none" stroke-width="1" fill="none" fill-rule="evenodd">
        <g id="nodejs">
            <path d="M218.647,270.93 C217.187,270.93 215.737,270.547 214.457,269.81 L201.12,261.914 C199.128,260.8 200.1,260.406 200.757,260.179 C203.413,259.249 203.952,259.039 206.787,257.429 C207.085,257.259 207.475,257.319 207.78,257.499 L218.026,263.579 C218.396,263.779 218.921,263.779 219.264,263.579 L259.214,240.519 C259.584,240.309 259.824,239.879 259.824,239.439 L259.824,193.339 C259.824,192.879 259.584,192.469 259.206,192.239 L219.272,169.199 C218.902,168.979 218.412,168.979 218.042,169.199 L178.116,192.239 C177.729,192.459 177.483,192.889 177.483,193.329 L177.483,239.429 C177.483,239.869 177.723,240.289 178.103,240.499 L189.043,246.819 C194.983,249.789 198.613,246.289 198.613,242.769 L198.613,197.269 C198.613,196.619 199.123,196.119 199.773,196.119 L204.833,196.119 C205.463,196.119 205.983,196.619 205.983,197.269 L205.983,242.789 C205.983,250.709 201.663,255.259 194.153,255.259 C191.843,255.259 190.023,255.259 184.943,252.759 L174.463,246.719 C171.873,245.219 170.273,242.419 170.273,239.429 L170.273,193.329 C170.273,190.329 171.873,187.529 174.463,186.049 L214.453,162.979 C216.983,161.549 220.343,161.549 222.853,162.979 L262.793,186.059 C265.373,187.549 266.983,190.339 266.983,193.339 L266.983,239.439 C266.983,242.429 265.373,245.219 262.793,246.719 L222.853,269.789 C221.573,270.529 220.123,270.909 218.643,270.909" id="Shape" fill="#689F63" fill-rule="nonzero"></path>
            <path d="M230.987,239.164 C213.507,239.164 209.842,231.14 209.842,224.41 C209.842,223.77 210.358,223.26 210.999,223.26 L216.159,223.26 C216.729,223.26 217.209,223.675 217.299,224.238 C218.079,229.496 220.399,232.148 230.969,232.148 C239.389,232.148 242.969,230.246 242.969,225.781 C242.969,223.211 241.949,221.301 228.869,220.021 C217.929,218.941 211.169,216.531 211.169,207.781 C211.169,199.721 217.969,194.921 229.359,194.921 C242.149,194.921 248.489,199.361 249.289,208.901 C249.319,209.231 249.199,209.551 248.979,209.791 C248.759,210.021 248.449,210.161 248.129,210.161 L242.939,210.161 C242.399,210.161 241.929,209.781 241.819,209.261 C240.569,203.731 237.549,201.961 229.339,201.961 C220.149,201.961 219.079,205.161 219.079,207.561 C219.079,210.471 220.339,211.321 232.739,212.961 C245.019,214.591 250.849,216.891 250.849,225.521 C250.849,234.221 243.589,239.211 230.929,239.211 L230.987,239.164 Z M279.589,190.321 L280.929,190.321 C282.029,190.321 282.239,189.551 282.239,189.101 C282.239,187.921 281.429,187.921 280.979,187.921 L279.599,187.921 L279.589,190.321 Z M277.959,186.541 L280.929,186.541 C281.949,186.541 283.949,186.541 283.949,188.821 C283.949,190.411 282.929,190.741 282.319,190.941 C283.509,191.021 283.589,191.801 283.749,192.901 C283.829,193.591 283.959,194.781 284.199,195.181 L282.369,195.181 C282.319,194.781 282.039,192.581 282.039,192.461 C281.919,191.971 281.749,191.731 281.139,191.731 L279.629,191.731 L279.629,195.191 L277.959,195.191 L277.959,186.541 Z M274.389,190.841 C274.389,194.421 277.279,197.321 280.829,197.321 C284.409,197.321 287.299,194.361 287.299,190.841 C287.299,187.251 284.369,184.401 280.819,184.401 C277.319,184.401 274.379,187.211 274.379,190.831 L274.389,190.841 Z M288.539,190.861 C288.539,195.101 285.069,198.561 280.839,198.561 C276.639,198.561 273.139,195.141 273.139,190.861 C273.139,186.501 276.719,183.161 280.839,183.161 C284.989,183.161 288.529,186.511 288.529,190.861 L288.539,190.861 Z" id="Shape" fill="#689F63" fill-rule="nonzero"></path>
            <path d="M94.936,90.55 C94.936,88.71 93.966,87.02 92.378,86.105 L50.022,61.735 C49.307,61.315 48.506,61.095 47.694,61.065 L47.256,61.065 C46.444,61.095 45.643,61.315 44.916,61.735 L2.562,86.105 C0.984,87.025 0,88.715 0,90.555 L0.093,156.195 C0.093,157.105 0.563,157.955 1.363,158.405 C2.143,158.885 3.123,158.885 3.903,158.405 L29.083,143.985 C30.673,143.039 31.643,141.367 31.643,139.545 L31.643,108.88 C31.643,107.05 32.613,105.36 34.198,104.45 L44.918,98.276 C45.714,97.816 46.588,97.588 47.478,97.588 C48.354,97.588 49.248,97.814 50.022,98.275 L60.737,104.447 C62.323,105.357 63.297,107.047 63.297,108.877 L63.297,139.54 C63.297,141.36 64.28,143.04 65.862,143.98 L91.026,158.39 C91.816,158.86 92.799,158.86 93.586,158.39 C94.362,157.94 94.854,157.09 94.854,156.18 L94.936,90.55 Z M294.804,124.726 C294.804,125.183 294.561,125.606 294.164,125.832 L279.616,134.218 C279.221,134.445 278.733,134.445 278.339,134.218 L263.789,125.832 C263.389,125.605 263.149,125.182 263.149,124.726 L263.149,107.93 C263.149,107.472 263.389,107.05 263.779,106.82 L278.319,98.42 C278.719,98.19 279.209,98.19 279.609,98.42 L294.159,106.82 C294.559,107.05 294.799,107.472 294.799,107.93 L294.804,124.726 Z M298.734,0.324 C297.94,-0.118 296.974,-0.106 296.19,0.351 C295.41,0.811 294.928,1.651 294.928,2.561 L294.928,67.561 C294.928,68.201 294.588,68.791 294.034,69.111 C293.484,69.431 292.799,69.431 292.244,69.111 L281.634,63 C280.054,62.086 278.108,62.086 276.522,63 L234.152,87.453 C232.569,88.363 231.592,90.053 231.592,91.873 L231.592,140.793 C231.592,142.623 232.569,144.303 234.152,145.223 L276.522,169.693 C278.104,170.603 280.052,170.603 281.639,169.693 L324.009,145.213 C325.589,144.293 326.569,142.613 326.569,140.783 L326.569,18.863 C326.569,17.007 325.559,15.3 323.939,14.393 L298.734,0.324 Z M439.827,107.488 C441.401,106.574 442.37,104.886 442.37,103.066 L442.37,91.21 C442.37,89.386 441.4,87.703 439.823,86.785 L397.723,62.345 C396.133,61.425 394.183,61.425 392.593,62.345 L350.233,86.795 C348.643,87.715 347.673,89.395 347.673,91.225 L347.673,140.125 C347.673,141.965 348.663,143.665 350.253,144.575 L392.343,168.565 C393.893,169.455 395.793,169.465 397.363,168.595 L422.823,154.445 C423.623,153.995 424.133,153.145 424.133,152.225 C424.133,151.305 423.643,150.445 422.843,149.995 L380.223,125.535 C379.423,125.085 378.933,124.235 378.933,123.325 L378.933,107.985 C378.933,107.069 379.413,106.225 380.213,105.769 L393.473,98.119 C394.263,97.659 395.233,97.659 396.023,98.119 L409.293,105.769 C410.083,106.219 410.573,107.069 410.573,107.979 L410.573,120.039 C410.573,120.949 411.063,121.799 411.853,122.259 C412.643,122.709 413.623,122.709 414.413,122.249 L439.827,107.488 Z" id="Shape" fill="#DADADA"></path>
            <path d="M394.538,105.2 C394.838,105.023 395.214,105.023 395.518,105.2 L403.648,109.89 C403.952,110.066 404.138,110.39 404.138,110.74 L404.138,120.13 C404.138,120.48 403.952,120.804 403.648,120.98 L395.518,125.67 C395.214,125.847 394.838,125.847 394.538,125.67 L386.413,120.98 C386.103,120.804 385.913,120.48 385.913,120.13 L385.913,110.74 C385.913,110.39 386.093,110.066 386.403,109.89 L394.538,105.2 Z" id="Shape" fill="#689F63"></path>
            <g id="Clipped" transform="translate(73.000000, 24.000000)">
                <mask id="mask-2" fill="white">
                    <use xlink:href="#path-1"></use>
                </mask>
                <use id="Shape" fill="#D8D8D8" xlink:href="#path-1"></use>
                <polygon id="Shape" fill="url(#linearGradient-3)" fill-rule="nonzero" mask="url(#mask-2)" points="180.057 58.777 61.342 0.587 0.472 124.761 119.184 182.954"></polygon>
            </g>
            <g id="Clipped" transform="translate(65.000000, 18.000000)">
                <mask id="mask-5" fill="white">
                    <use xlink:href="#path-4"></use>
                </mask>
                <use id="Shape" fill="#D8D8D8" xlink:href="#path-4"></use>
                <polygon id="Shape" fill="url(#linearGradient-6)" fill-rule="nonzero" mask="url(#mask-5)" points="0.764 81.988 84.589 195.441 195.449 113.535 111.619 0.085"></polygon>
            </g>
            <g id="Clipped" transform="translate(118.000000, 61.000000)">
                <mask id="mask-8" fill="white">
                    <use xlink:href="#path-7"></use>
                </mask>
                <use id="Shape" fill="#D8D8D8" xlink:href="#path-7"></use>
                <polygon id="Shape" fill="url(#linearGradient-9)" fill-rule="nonzero" mask="url(#mask-8)" points="0.714 0.918 0.714 108.348 92.397 108.348 92.397 0.918"></polygon>
            </g>
        </g>
    </g>
</svg>
